images/suitcase.svg

<?xml version="1.0" encoding="iso-8859-1"?>
<!-- Generator: Adobe Illustrator 19.0.0, SVG Export Plug-In . SVG Version: 6.00 Build 0)  -->
<svg xmlns="http://www.w3.org/2000/svg" xmlns:xlink="http://www.w3.org/1999/xlink" version="1.1" id="Capa_1" x="0px" y="0px" viewBox="0 0 512 512" style="enable-background:new 0 0 512 512;" xml:space="preserve" width="512px" height="512px">
<g>
	<g>
		<path d="M230.4,110.933H42.667C19.14,110.933,0,130.074,0,153.6v273.067c0,23.526,19.14,42.667,42.667,42.667H153.6v-17.067    H42.667c-14.114,0-25.6-11.486-25.6-25.6V153.6c0-14.114,11.486-25.6,25.6-25.6H230.4c14.114,0,25.6,11.486,25.6,25.6v8.533    h17.067V153.6C273.067,130.074,253.926,110.933,230.4,110.933z" fill="#b2b8bc"/>
	</g>
</g>
<g>
	<g>
		<path d="M187.733,0h-102.4c-14.114,0-25.6,11.486-25.6,25.6s11.486,25.6,25.6,25.6h102.4c14.114,0,25.6-11.486,25.6-25.6    S201.847,0,187.733,0z M187.733,34.133h-102.4c-4.702,0-8.533-3.831-8.533-8.533c0-4.702,3.831-8.533,8.533-8.533h102.4    c4.702,0,8.533,3.831,8.533,8.533C196.267,30.302,192.435,34.133,187.733,34.133z" fill="#b2b8bc"/>
	</g>
</g>
<g>
	<g>
		<rect x="93.867" y="42.667" width="17.067" height="76.8" fill="#b2b8bc"/>
	</g>
</g>
<g>
	<g>
		<rect x="162.133" y="42.667" width="17.067" height="76.8" fill="#b2b8bc"/>
	</g>
</g>
<g>
	<g>
		<rect x="51.2" y="256" width="17.067" height="153.6" fill="#b2b8bc"/>
	</g>
</g>
<g>
	<g>
		<rect x="153.6" y="162.133" width="17.067" height="68.267" fill="#b2b8bc"/>
	</g>
</g>
<g>
	<g>
		<path d="M38.4,452.267c-16.469,0-29.867,13.397-29.867,29.867S21.931,512,38.4,512c16.469,0,29.867-13.397,29.867-29.867    S54.869,452.267,38.4,452.267z M38.4,494.933c-7.057,0-12.8-5.743-12.8-12.8s5.743-12.8,12.8-12.8s12.8,5.743,12.8,12.8    S45.457,494.933,38.4,494.933z" fill="#b2b8bc"/>
	</g>
</g>
<g>
	<g>
		<rect x="102.4" y="162.133" width="17.067" height="247.467" fill="#b2b8bc"/>
	</g>
</g>
<g>
	<g>
		<path d="M93.261,235.759l-17.067-42.667c-0.853-2.133-2.534-3.831-4.659-4.71c-2.133-0.888-4.523-0.879-6.63,0.043l-59.733,25.6    C2.031,215.364,0,218.453,0,221.867v51.2c0,2.893,1.459,5.581,3.883,7.159c1.408,0.905,3.029,1.374,4.651,1.374    c1.178,0,2.355-0.239,3.473-0.742l76.8-34.133C92.996,244.864,94.959,240.026,93.261,235.759z M17.067,259.934V227.49    l46.524-19.934l10.769,26.914L17.067,259.934z" fill="#b2b8bc"/>
	</g>
</g>
<g>
	<g>
		<rect x="51.2" y="162.133" width="17.067" height="42.667" fill="#b2b8bc"/>
	</g>
</g>
<g>
	<g>
		<rect x="204.8" y="162.133" width="17.067" height="68.267" fill="#b2b8bc"/>
	</g>
</g>
<g>
	<g>
		<path d="M234.667,452.267c-16.469,0-29.867,13.397-29.867,29.867S218.197,512,234.667,512c16.469,0,29.867-13.397,29.867-29.867    S251.136,452.267,234.667,452.267z M234.667,494.933c-7.057,0-12.8-5.743-12.8-12.8s5.743-12.8,12.8-12.8s12.8,5.743,12.8,12.8    S241.724,494.933,234.667,494.933z" fill="#b2b8bc"/>
	</g>
</g>
<g>
	<g>
		<path d="M469.333,213.333H170.667C147.14,213.333,128,232.474,128,256v170.667c0,23.526,19.14,42.667,42.667,42.667h298.667    c23.526,0,42.667-19.14,42.667-42.667V256C512,232.474,492.86,213.333,469.333,213.333z M494.933,426.667    c0,14.114-11.486,25.6-25.6,25.6H170.667c-14.114,0-25.6-11.486-25.6-25.6V256c0-14.114,11.486-25.6,25.6-25.6h298.667    c14.114,0,25.6,11.486,25.6,25.6V426.667z" fill="#b2b8bc"/>
	</g>
</g>
<g>
	<g>
		<path d="M358.4,179.2h-76.8c-4.719,0-8.533,3.823-8.533,8.533v34.133h17.067v-25.6h59.733v25.6h17.067v-34.133    C366.933,183.023,363.119,179.2,358.4,179.2z" fill="#b2b8bc"/>
	</g>
</g>
<g>
	<g>
		<path d="M358.4,145.067h-76.8c-23.526,0-42.667,19.14-42.667,42.667v34.133H256v-34.133c0-14.114,11.486-25.6,25.6-25.6h76.8    c14.114,0,25.6,11.486,25.6,25.6v34.133h17.067v-34.133C401.067,164.207,381.926,145.067,358.4,145.067z" fill="#b2b8bc"/>
	</g>
</g>
<g>
	<g>
		<path d="M356.804,310.775l-42.667-59.733c-3.2-4.489-10.684-4.489-13.884,0l-42.667,59.733c-1.86,2.603-2.108,6.016-0.649,8.866    c1.468,2.842,4.395,4.625,7.595,4.625h85.333c3.2,0,6.127-1.783,7.586-4.625C358.912,316.792,358.665,313.378,356.804,310.775z     M281.114,307.2l26.086-36.514l26.078,36.514H281.114z" fill="#b2b8bc"/>
	</g>
</g>
<g>
	<g>
		<path d="M440.004,335.59c-26.846-8.747-54.579,2.33-61.867,24.67c-3.652,11.179-1.749,23.296,5.359,34.133    c6.716,10.24,17.391,18.15,30.046,22.289c6.238,2.031,12.518,2.995,18.586,2.995c20.028,0,37.692-10.513,43.298-27.665    C482.722,369.656,466.833,344.346,440.004,335.59z M459.187,386.722c-4.369,13.414-22.485,19.567-40.354,13.739    c-8.994-2.944-16.478-8.422-21.077-15.428c-4.207-6.417-5.419-13.329-3.413-19.473c0,0,0,0,0.009,0    c3.251-9.975,14.106-15.932,26.803-15.932c4.378,0,8.969,0.7,13.534,2.193C452.574,357.666,463.556,373.316,459.187,386.722z" fill="#b2b8bc"/>
	</g>
</g>
<g>
	<g>
		<path d="M166.4,452.267c-16.469,0-29.867,13.397-29.867,29.867S149.931,512,166.4,512c16.469,0,29.867-13.397,29.867-29.867    S182.869,452.267,166.4,452.267z M166.4,494.933c-7.057,0-12.8-5.743-12.8-12.8s5.743-12.8,12.8-12.8s12.8,5.743,12.8,12.8    S173.457,494.933,166.4,494.933z" fill="#b2b8bc"/>
	</g>
</g>
<g>
	<g>
		<path d="M473.6,452.267c-16.469,0-29.867,13.397-29.867,29.867S457.131,512,473.6,512c16.469,0,29.867-13.397,29.867-29.867    S490.069,452.267,473.6,452.267z M473.6,494.933c-7.057,0-12.8-5.743-12.8-12.8s5.743-12.8,12.8-12.8s12.8,5.743,12.8,12.8    S480.657,494.933,473.6,494.933z" fill="#b2b8bc"/>
	</g>
</g>
<g>
	<g>
		<rect x="204.8" y="392.533" width="17.067" height="68.267" fill="#b2b8bc"/>
	</g>
</g>
<g>
	<g>
		<path d="M213.333,213.333H179.2c-4.71,0-8.533,3.823-8.533,8.533v102.4h17.067V230.4H204.8v110.933h17.067V221.867    C221.867,217.156,218.044,213.333,213.333,213.333z" fill="#b2b8bc"/>
	</g>
</g>
<g>
	<g>
		<rect x="170.667" y="366.933" width="17.067" height="93.867" fill="#b2b8bc"/>
	</g>
</g>
<g>
	<g>
		<rect x="452.267" y="401.067" width="17.067" height="59.733" fill="#b2b8bc"/>
	</g>
</g>
<g>
	<g>
		<path d="M460.8,213.333h-34.133c-4.719,0-8.533,3.823-8.533,8.533v119.467H435.2V230.4h17.067v128h17.067V221.867    C469.333,217.156,465.519,213.333,460.8,213.333z" fill="#b2b8bc"/>
	</g>
</g>
<g>
	<g>
		<rect x="418.133" y="409.6" width="17.067" height="51.2" fill="#b2b8bc"/>
	</g>
</g>
<g>
	<g>
		<path d="M243.234,351.019l-102.4-59.733l-8.602,14.754l95.488,55.697l-9.37,18.731l-77.431-46.456l-8.781,14.635l85.333,51.2    c1.348,0.802,2.859,1.22,4.395,1.22c0.802,0,1.604-0.111,2.389-0.341c2.278-0.666,4.181-2.253,5.248-4.378l17.067-34.133    C248.576,358.187,247.125,353.297,243.234,351.019z" fill="#b2b8bc"/>
	</g>
</g>
<g>
</g>
<g>
</g>
<g>
</g>
<g>
</g>
<g>
</g>
<g>
</g>
<g>
</g>
<g>
</g>
<g>
</g>
<g>
</g>
<g>
</g>
<g>
</g>
<g>
</g>
<g>
</g>
<g>
</g>
</svg>

<svg width="512" height="512" viewBox="0 0 512 512" fill="none" xmlns="http://www.w3.org/2000/svg">
<path d="M187.733 0H85.333C71.219 0 59.733 11.486 59.733 25.6C59.733 39.714 71.219 51.2 85.333 51.2H187.733C201.847 51.2 213.333 39.714 213.333 25.6C213.333 11.486 201.847 0 187.733 0ZM187.733 34.133H85.333C80.631 34.133 76.8 30.302 76.8 25.6C76.8 20.898 80.631 17.067 85.333 17.067H187.733C192.435 17.067 196.266 20.898 196.266 25.6C196.267 30.302 192.435 34.133 187.733 34.133Z" fill="#BC7045"/>
<path d="M230.4 110.933H42.667C19.14 110.933 0 130.074 0 153.6V426.667C0 450.193 19.14 469.334 42.667 469.334H153.6V452.267H42.667C28.553 452.267 17.067 440.781 17.067 426.667V153.6C17.067 139.486 28.553 128 42.667 128H230.4C244.514 128 256 139.486 256 153.6V162.133H273.067V153.6C273.067 130.074 253.926 110.933 230.4 110.933Z" fill="#BC7045"/>
<path d="M110.934 42.667H93.867V119.467H110.934V42.667Z" fill="#BC7045"/>
<path d="M179.2 42.667H162.133V119.467H179.2V42.667Z" fill="#BC7045"/>
<path d="M68.267 256H51.2V409.6H68.267V256Z" fill="#BC7045"/>
<path d="M170.667 162.133H153.6V230.4H170.667V162.133Z" fill="#BC7045"/>
<path d="M38.4 452.267C21.931 452.267 8.53302 465.664 8.53302 482.134C8.53302 498.604 21.931 512 38.4 512C54.869 512 68.267 498.603 68.267 482.133C68.267 465.663 54.869 452.267 38.4 452.267ZM38.4 494.933C31.343 494.933 25.6 489.19 25.6 482.133C25.6 475.076 31.343 469.333 38.4 469.333C45.457 469.333 51.2 475.076 51.2 482.133C51.2 489.19 45.457 494.933 38.4 494.933Z" fill="#BC7045"/>
<path d="M119.467 162.133H102.4V409.6H119.467V162.133Z" fill="#BC7045"/>
<path d="M93.261 235.759L76.194 193.092C75.341 190.959 73.66 189.261 71.535 188.382C69.402 187.494 67.012 187.503 64.905 188.425L5.172 214.025C2.031 215.364 0 218.453 0 221.867V273.067C0 275.96 1.459 278.648 3.883 280.226C5.291 281.131 6.912 281.6 8.534 281.6C9.712 281.6 10.889 281.361 12.007 280.858L88.807 246.725C92.996 244.864 94.959 240.026 93.261 235.759ZM17.067 259.934V227.49L63.591 207.556L74.36 234.47L17.067 259.934Z" fill="#BC7045"/>
<path d="M68.267 162.133H51.2V204.8H68.267V162.133Z" fill="#BC7045"/>
<path d="M221.867 162.133H204.8V230.4H221.867V162.133Z" fill="#BC7045"/>
<path d="M234.667 452.267C218.198 452.267 204.8 465.664 204.8 482.134C204.8 498.604 218.197 512 234.667 512C251.136 512 264.534 498.603 264.534 482.133C264.534 465.663 251.136 452.267 234.667 452.267ZM234.667 494.933C227.61 494.933 221.867 489.19 221.867 482.133C221.867 475.076 227.61 469.333 234.667 469.333C241.724 469.333 247.467 475.076 247.467 482.133C247.467 489.19 241.724 494.933 234.667 494.933Z" fill="#BC7045"/>
<path d="M469.333 213.333H170.667C147.14 213.333 128 232.474 128 256V426.667C128 450.193 147.14 469.334 170.667 469.334H469.334C492.86 469.334 512.001 450.194 512.001 426.667V256C512 232.474 492.86 213.333 469.333 213.333ZM494.933 426.667C494.933 440.781 483.447 452.267 469.333 452.267H170.667C156.553 452.267 145.067 440.781 145.067 426.667V256C145.067 241.886 156.553 230.4 170.667 230.4H469.334C483.448 230.4 494.934 241.886 494.934 256V426.667H494.933Z" fill="#BC7045"/>
<path d="M358.4 179.2H281.6C276.881 179.2 273.067 183.023 273.067 187.733V221.866H290.134V196.266H349.867V221.866H366.934V187.733C366.933 183.023 363.119 179.2 358.4 179.2Z" fill="#BC7045"/>
<path d="M358.4 145.067H281.6C258.074 145.067 238.933 164.207 238.933 187.734V221.867H256V187.734C256 173.62 267.486 162.134 281.6 162.134H358.4C372.514 162.134 384 173.62 384 187.734V221.867H401.067V187.734C401.067 164.207 381.926 145.067 358.4 145.067Z" fill="#BC7045"/>
<path d="M356.804 310.775L314.137 251.042C310.937 246.553 303.453 246.553 300.253 251.042L257.586 310.775C255.726 313.378 255.478 316.791 256.937 319.641C258.405 322.483 261.332 324.266 264.532 324.266H349.865C353.065 324.266 355.992 322.483 357.451 319.641C358.912 316.792 358.665 313.378 356.804 310.775ZM281.114 307.2L307.2 270.686L333.278 307.2H281.114Z" fill="#BC7045"/>
<path d="M440.004 335.59C413.158 326.843 385.425 337.92 378.137 360.26C374.485 371.439 376.388 383.556 383.496 394.393C390.212 404.633 400.887 412.543 413.542 416.682C419.78 418.713 426.06 419.677 432.128 419.677C452.156 419.677 469.82 409.164 475.426 392.012C482.722 369.656 466.833 344.346 440.004 335.59ZM459.187 386.722C454.818 400.136 436.702 406.289 418.833 400.461C409.839 397.517 402.355 392.039 397.756 385.033C393.549 378.616 392.337 371.704 394.343 365.56C394.343 365.56 394.343 365.56 394.352 365.56C397.603 355.585 408.458 349.628 421.155 349.628C425.533 349.628 430.124 350.328 434.689 351.821C452.574 357.666 463.556 373.316 459.187 386.722Z" fill="#BC7045"/>
<path d="M166.4 452.267C149.931 452.267 136.533 465.664 136.533 482.134C136.533 498.604 149.931 512 166.4 512C182.869 512 196.267 498.603 196.267 482.133C196.267 465.663 182.869 452.267 166.4 452.267ZM166.4 494.933C159.343 494.933 153.6 489.19 153.6 482.133C153.6 475.076 159.343 469.333 166.4 469.333C173.457 469.333 179.2 475.076 179.2 482.133C179.2 489.19 173.457 494.933 166.4 494.933Z" fill="#BC7045"/>
<path d="M473.6 452.267C457.131 452.267 443.733 465.664 443.733 482.134C443.733 498.604 457.131 512 473.6 512C490.069 512 503.467 498.603 503.467 482.133C503.467 465.663 490.069 452.267 473.6 452.267ZM473.6 494.933C466.543 494.933 460.8 489.19 460.8 482.133C460.8 475.076 466.543 469.333 473.6 469.333C480.657 469.333 486.4 475.076 486.4 482.133C486.4 489.19 480.657 494.933 473.6 494.933Z" fill="#BC7045"/>
<path d="M221.867 392.533H204.8V460.8H221.867V392.533Z" fill="#BC7045"/>
<path d="M213.333 213.333H179.2C174.49 213.333 170.667 217.156 170.667 221.866V324.266H187.734V230.4H204.8V341.333H221.867V221.867C221.867 217.156 218.044 213.333 213.333 213.333Z" fill="#BC7045"/>
<path d="M187.734 366.933H170.667V460.8H187.734V366.933Z" fill="#BC7045"/>
<path d="M469.334 401.067H452.267V460.8H469.334V401.067Z" fill="#BC7045"/>
<path d="M460.8 213.333H426.667C421.948 213.333 418.134 217.156 418.134 221.866V341.333H435.2V230.4H452.267V358.4H469.334V221.867C469.333 217.156 465.519 213.333 460.8 213.333Z" fill="#BC7045"/>
<path d="M435.2 409.6H418.133V460.8H435.2V409.6Z" fill="#BC7045"/>
<path d="M243.234 351.019L140.834 291.286L132.232 306.04L227.72 361.737L218.35 380.468L140.919 334.012L132.138 348.647L217.471 399.847C218.819 400.649 220.33 401.067 221.866 401.067C222.668 401.067 223.47 400.956 224.255 400.726C226.533 400.06 228.436 398.473 229.503 396.348L246.57 362.215C248.576 358.187 247.125 353.297 243.234 351.019Z" fill="#BC7045"/>
</svg>
